public/images/bull-up.svg

<svg height="245" viewBox="0 0 245 245" width="245" xmlns="http://www.w3.org/2000/svg" xmlns:xlink="http://www.w3.org/1999/xlink"><linearGradient id="a" x1="50%" x2="50%" y1="0%" y2="100%"><stop offset="0" stop-color="#dc934a"/><stop offset="1" stop-color="#9e5833"/></linearGradient><linearGradient id="b" x1="50%" x2="50%" y1="0%" y2="100%"><stop offset="0" stop-color="#ac562d"/><stop offset="1" stop-color="#784225"/></linearGradient><linearGradient id="c" x1="0%" x2="97.623274%" y1="48.321416%" y2="46.103281%"><stop offset="0" stop-color="#009e76"/><stop offset="1" stop-color="#19d394"/></linearGradient><g fill="none" fill-rule="evenodd"><path d="m36.2325979 188.368155v30.551903c-.1354613 2.379953 1.1811812 3.56993 3.9499273 3.56993h13.6477222c2.4447166-.177425 3.667075-1.886799 3.667075-5.12812s-.8692098-10.511332-2.6076294-21.810033l13.210167-20.861034c10.1593382 6.244559 19.2505078 9.366838 27.273509 9.366838h28.088586c2.430862 25.621566 6.483796 38.432349 12.158802 38.432349h10.637943c5.05722-.233354 6.321525-2.325637 3.792915-6.276847s-4.201736-7.022691-5.019378-9.214444c-1.859258-18.487897-1.859258-28.404277 0-29.749141 2.788885-2.017295 20.881815-13.933268 30.539202-32.682723 1.498541 1.69519 9.49037 3.134466 14.712171-2.932429 1.537537 1.839246 5.182291 2.517579 10.934264 2.034998l6.867347-7.377251c1.173228-1.609629 1.173228-3.12895 0-4.557964s-8.37384-9.994116-21.601838-25.695308c-2.670742-3.096624-5.551218-4.644936-8.641428-4.644936s-6.927894 2.222155-11.513053 6.666464c-15.574878 2.137107-26.356748 4.352848-32.34561 6.647223-8.983292 3.441563-20.207203 7.14458-27.411279 7.79237-4.802717.43186-17.8001998.063357-38.9924474-1.10551-15.1749967.531327-26.0588473 6.832328-32.651552 18.903004s-9.196614 25.338055-7.8117278 39.802136h6.692633c-1.0174988-11.515233-.2096058-19.381992 2.4236791-23.600276.0836371 3.628976 1.6188647 9.692792 4.6056829 18.191447z" fill="url(#a)"/><g fill="url(#b)"><path d="m72.7349962 164.571669c2.7322941 3.96402 4.3067698 8.975459 4.7234273 15.034315-2.3932401-1.270066-7.6169335-3.422874-8.5478305-4.585542.7296126-1.788579 2.0044137-5.271503 3.8244032-10.448773z"/><path d="m122.541968 168.06106.919987 15.996579h-9.071139c0-5.861027 2.717051-11.19322 8.151152-15.996579z"/><path d="m152.216177 156.915627 2.622086 12.682919c-3.531881 3.109077-6.53374 5.429788-9.005578 6.962133.047422-2.995872 2.175252-9.544223 6.383492-19.645052z"/><path d="m191.63479 94.1458075c0 8.6830455-4.731668 14.1504855-14.195004 16.4023175v6.968725c14.331976-2.868132 21.272502-10.977742 20.82158-24.3288294-2.09983.0077256-4.308689.0077256-6.626576 0-.008498.2099444-.008498.5292067 0 .9577869z"/></g><path d="m19.2586477 49.3329608c-1.9174063.7267016-2.7980826 1.7163465-2.6420289 2.9689345v28.1017798c.5981519 2.9322447 2.4375313 3.6653059 5.5181383 2.1991835s11.2778308-5.5660795 24.5916714-12.2998715l39.8656141 41.8626369c1.4269866 1.654708 3.7293907 1.654708 6.9072122 0s36.5021422-18.1712097 99.9729632-49.5495063l9.779285 14.0862954c2.462127 3.0178542 4.814796 2.7057468 7.058008-.9363224.987198-4.6065203 4.167833-17.7586947 9.541903-39.4565233.957602-3.3793705-.034244-5.2374617-2.975539-5.5742736s-16.915197-2.3383652-41.921708-6.0046598c-3.097104.3495413-4.321685 2.021376-3.673744 5.0155041 1.512351 2.4755797 3.715571 5.6931484 6.609658 9.6527062l-83.5198115 40.3781698-43.2454738-42.8345485c-1.7295548-1.6375859-4.0438219-1.6375859-6.9428013 0-4.3484691 2.4563787-22.0472373 11.3004428-24.9233467 12.3904952z" fill="url(#c)"/></g></svg>

<?xml version="1.0" encoding="UTF-8"?>
<svg width="245px" height="245px" viewBox="0 0 245 245" version="1.1" xmlns="http://www.w3.org/2000/svg" xmlns:xlink="http://www.w3.org/1999/xlink">
    <title>Bull </title>
    <defs>
        <linearGradient x1="50%" y1="0%" x2="50%" y2="100%" id="linearGradient-1">
            <stop stop-color="#DC934A" offset="0%"></stop>
            <stop stop-color="#9E5833" offset="100%"></stop>
        </linearGradient>
        <linearGradient x1="50%" y1="0%" x2="50%" y2="100%" id="linearGradient-2">
            <stop stop-color="#AC562D" offset="0%"></stop>
            <stop stop-color="#784225" offset="100%"></stop>
        </linearGradient>
        <linearGradient x1="50%" y1="0%" x2="50%" y2="100%" id="linearGradient-3">
            <stop stop-color="#AC562D" offset="0%"></stop>
            <stop stop-color="#784225" offset="100%"></stop>
        </linearGradient>
        <linearGradient x1="50%" y1="0%" x2="50%" y2="100%" id="linearGradient-4">
            <stop stop-color="#AC562D" offset="0%"></stop>
            <stop stop-color="#784225" offset="100%"></stop>
        </linearGradient>
        <linearGradient x1="50%" y1="0%" x2="50%" y2="100%" id="linearGradient-5">
            <stop stop-color="#AC562D" offset="0%"></stop>
            <stop stop-color="#784225" offset="100%"></stop>
        </linearGradient>
        <linearGradient x1="0%" y1="48.3214156%" x2="97.6232735%" y2="46.1032807%" id="linearGradient-6">
            <stop stop-color="#009E76" offset="0%"></stop>
            <stop stop-color="#19D394" offset="100%"></stop>
        </linearGradient>
    </defs>
    <g id="Bull-" stroke="none" stroke-width="1" fill="none" fill-rule="evenodd">
        <path d="M36.2325979,188.368155 L36.2325979,218.920058 C36.0971366,221.300011 37.4137791,222.489988 40.1825252,222.489988 C42.9512713,222.489988 47.500512,222.489988 53.8302474,222.489988 C56.274964,222.312563 57.4973224,220.603189 57.4973224,217.361868 C57.4973224,214.120547 56.6281126,206.850536 54.889693,195.551835 L68.09986,174.690801 C78.2591982,180.93536 87.3503678,184.057639 95.373369,184.057639 C103.39637,184.057639 112.759232,184.057639 123.461955,184.057639 C125.892817,209.679205 129.945751,222.489988 135.620757,222.489988 C141.295763,222.489988 144.841744,222.489988 146.2587,222.489988 C151.31592,222.256634 152.580225,220.164351 150.051615,216.213141 C147.523005,212.261931 145.849879,209.19045 145.032237,206.998697 C143.172979,188.5108 143.172979,178.59442 145.032237,177.249556 C147.821122,175.232261 165.914052,163.316288 175.571439,144.566833 C177.06998,146.262023 185.061809,147.701299 190.28361,141.634404 C191.821147,143.47365 195.465901,144.151983 201.217874,143.669402 L208.085221,136.292151 C209.258449,134.682522 209.258449,133.163201 208.085221,131.734187 C206.911993,130.305173 199.711381,121.740071 186.483383,106.038879 C183.812641,102.942255 180.932165,101.393943 177.841955,101.393943 C174.751745,101.393943 170.914061,103.616098 166.328902,108.060407 C150.754024,110.197514 139.972154,112.413255 133.983292,114.70763 C125,118.149193 113.776089,121.85221 106.572013,122.5 C101.769296,122.93186 88.7718132,122.563357 67.5795656,121.39449 C52.4045689,121.925817 41.5207183,128.226818 34.9280136,140.297494 C28.3353089,152.36817 25.7313996,165.635549 27.1162858,180.09963 L33.8089188,180.09963 C32.79142,168.584397 33.599313,160.717638 36.2325979,156.499354 C36.316235,160.12833 37.8514626,166.192146 40.8382808,174.690801 L36.2325979,188.368155 Z" id="Path" fill="url(#linearGradient-1)"></path>
        <path d="M72.7349962,164.571669 C75.4672903,168.535689 77.041766,173.547128 77.4584235,179.605984 C75.0651834,178.335918 69.84149,176.18311 68.910593,175.020442 C69.6402056,173.231863 70.9150067,169.748939 72.7349962,164.571669 Z" id="Path-2" fill="url(#linearGradient-2)"></path>
        <path d="M122.541968,168.06106 L123.461955,184.057639 L114.390816,184.057639 C114.390816,178.196612 117.107867,172.864419 122.541968,168.06106 Z" id="Path-3" fill="url(#linearGradient-3)"></path>
        <path d="M152.216177,156.915627 L154.838263,169.598546 C151.306382,172.707623 148.304523,175.028334 145.832685,176.560679 C145.880107,173.564807 148.007937,167.016456 152.216177,156.915627 Z" id="Path-4" fill="url(#linearGradient-4)"></path>
        <path d="M191.63479,94.1458075 C191.63479,102.828853 186.903122,108.296293 177.439786,110.548125 L177.439786,117.51685 C191.771762,114.648718 198.712288,106.539108 198.261366,93.1880206 C196.161536,93.1957462 193.952677,93.1957462 191.63479,93.1880206 C191.626292,93.397965 191.626292,93.7172273 191.63479,94.1458075 Z" id="Path-5" fill="url(#linearGradient-5)"></path>
        <path d="M19.2586477,49.3329608 C17.3412414,50.0596624 16.4605651,51.0493073 16.6166188,52.3018953 L16.6166188,80.4036751 C17.2147707,83.3359198 19.0541501,84.068981 22.1347571,82.6028586 C25.2153641,81.1367362 33.4125879,77.0367791 46.7264285,70.3029871 L86.5920426,112.165624 C88.0190292,113.820332 90.3214333,113.820332 93.4992548,112.165624 C96.6770763,110.510916 130.001397,93.9944143 193.472218,62.6161177 L203.251503,76.7024131 C205.71363,79.7202673 208.066299,79.4081599 210.309511,75.7660907 C211.296709,71.1595704 214.477344,58.007396 219.851414,36.3095674 C220.809016,32.9301969 219.81717,31.0721057 216.875875,30.7352938 C213.93458,30.3984819 199.960678,28.3969286 174.954167,24.730634 C171.857063,25.0801753 170.632482,26.75201 171.280423,29.7461381 C172.792774,32.2217178 174.995994,35.4392865 177.890081,39.3988443 L94.3702695,79.7770141 L51.1247957,36.9424656 C49.3952409,35.3048797 47.0809738,35.3048797 44.1819944,36.9424656 C39.8335253,39.3988443 22.1347571,48.2429084 19.2586477,49.3329608 Z" id="Path-6" fill="url(#linearGradient-6)"></path>
    </g>
</svg>
